libs/ui/packages/crypto-icons/src/svg/LINK.svg

<svg width="24" height="24" viewBox="0 0 24 24" fill="none">
<path d="M12 4.5L10.6508 5.29125L6.975 7.45875L5.625 8.25V15.75L6.97425 16.5413L10.6845 18.7087L12.0338 19.5L13.383 18.7087L17.0258 16.5413L18.375 15.75V8.25L17.0258 7.45875L13.3492 5.29125L12 4.5ZM8.3235 14.1675V9.8325L12 7.665L15.6765 9.8325V14.1675L12 16.335L8.3235 14.1675Z" fill="#2A5ADA"/>
</svg>

<svg width="24" height="24" viewBox="0 0 24 24" fill="none"><path fill="#2a5ada" d="m12 4.5-1.35.791L6.976 7.46l-1.35.791v7.5l1.35.791 3.71 2.168 1.349.791 1.349-.791 3.643-2.168 1.349-.791v-7.5l-1.35-.791-3.676-2.17zm-3.677 9.668V9.833L12 7.664l3.677 2.167v4.336L12 16.334z"/></svg>
